src/images/vicompany.svg

<svg width="355" height="41" viewBox="0 0 355 41" fill="none" xmlns="http://www.w3.org/2000/svg" xmlns:xlink="http://www.w3.org/1999/xlink">
<path d="M88.0593 20.6034V20.5171C88.0283 18.4309 88.4178 16.3599 89.2044 14.4285C89.991 12.4972 91.1586 10.7452 92.6369 9.278C94.1152 7.81075 95.8737 6.65844 97.807 5.89027C99.7402 5.1221 101.808 4.75392 103.887 4.80785C110.037 4.80785 113.994 7.39729 116.66 11.0655L110.381 15.9426C108.66 13.8275 106.682 12.4036 103.801 12.4036C99.586 12.4036 96.6182 16.0289 96.6182 20.4308V20.5171C96.6182 25.0486 99.586 28.5872 103.801 28.5872C106.94 28.5872 108.79 27.1199 110.596 24.919L116.875 29.4075C114.037 33.3346 110.209 36.2263 103.586 36.2263C101.534 36.2587 99.4971 35.8764 97.5959 35.1022C95.6948 34.328 93.9683 33.1778 92.5195 31.7199C91.0707 30.2621 89.9292 28.5266 89.1629 26.6167C88.3966 24.7069 88.0213 22.6618 88.0593 20.6034Z" fill="white"/>
<path d="M125.086 20.6034V20.5171C125.086 11.8425 132.053 4.80786 141.343 4.80786C150.633 4.80786 157.514 11.7562 157.514 20.4308V20.5171C157.514 29.1916 150.547 36.2263 141.257 36.2263C131.967 36.2263 125.086 29.2779 125.086 20.6034ZM148.956 20.6034V20.5171C148.956 16.1152 145.859 12.3603 141.257 12.3603C136.655 12.3603 133.601 16.0718 133.601 20.4308V20.5171C133.601 24.8756 136.741 28.6739 141.343 28.6739C145.902 28.6739 148.956 24.9623 148.956 20.6034Z" fill="white"/>
<path d="M167.831 5.41229H176.648L183.83 17.1077L191.013 5.41229H199.83V35.6219H191.529V18.2728L183.83 30.0979H183.658L176.003 18.3162V35.6219H167.831L167.831 5.41229Z" fill="white"/>
<path d="M211.609 5.41229H224.555C232.124 5.41229 237.027 9.3398 237.027 15.986V16.0719C237.027 23.2358 231.565 26.9907 224.125 26.9907H219.953V35.6219H211.609L211.609 5.41229ZM223.952 20.4308C226.877 20.4308 228.726 18.8339 228.726 16.4604V16.3741C228.726 13.7846 226.877 12.447 223.909 12.447H219.953V20.4308L223.952 20.4308Z" fill="white"/>
<path d="M254.399 5.19635H262.442L275.258 35.6219H266.312L264.162 30.1841H252.506L250.356 35.6219H241.625L254.399 5.19635ZM261.71 23.6676L258.355 15.1223L254.958 23.6676H261.71Z" fill="white"/>
<path d="M284.629 5.41229H292.414L304.8 21.38V5.41229H313.058V35.6219H305.789L292.887 19.0498V35.6219H284.629V5.41229Z" fill="white"/>
<path d="M334.428 24.315L322.944 5.41229H332.45L338.643 16.417L344.879 5.41229H354.212L342.772 24.1853V35.6219H334.428L334.428 24.315Z" fill="white"/>
<path d="M0 5.44092H9.28803L16.1654 24.5342L23.0428 5.44092H32.1182L19.9232 35.6387H12.195L0 5.44092Z" fill="#FB5F61"/>
<path d="M39.4209 5.44092H47.8581V35.6631H39.4209V5.44092Z" fill="#FB5F61"/>
<path d="M82.3161 0.534241H75.6514L56.579 40.5342H63.2437L82.3161 0.534241Z" fill="#FB5F61"/>
<path d="M156.175 20.7002C156.175 28.6967 149.58 35.2206 141.392 35.2206C133.204 35.2206 126.608 28.6967 126.608 20.7002C126.608 12.7038 133.204 6.17987 141.392 6.17987C149.58 6.17987 156.175 12.7038 156.175 20.7002Z" fill="url(#pattern0)" stroke="white" stroke-width="3"/>
<defs>
<pattern id="pattern0" patternContentUnits="objectBoundingBox" width="1" height="1">
<use xlink:href="#image0" transform="translate(-0.23695) scale(0.00122825)"/>
</pattern>
</defs>
</svg>

<svg width="355" height="41" fill="none" xmlns="http://www.w3.org/2000/svg"><path d="M88.06 20.603v-.086a15.528 15.528 0 011.144-6.088 15.487 15.487 0 013.433-5.151 15.426 15.426 0 015.17-3.388 15.383 15.383 0 016.08-1.082c6.15 0 10.107 2.59 12.773 6.258l-6.279 4.877c-1.721-2.115-3.699-3.54-6.58-3.54-4.215 0-7.183 3.626-7.183 8.028v.086c0 4.532 2.968 8.07 7.183 8.07 3.139 0 4.989-1.467 6.795-3.668l6.279 4.488c-2.838 3.928-6.666 6.82-13.289 6.82a15.243 15.243 0 01-5.99-1.125 15.283 15.283 0 01-5.077-3.382 15.345 15.345 0 01-3.356-5.103 15.388 15.388 0 01-1.104-6.014zM167.831 5.412h8.817l7.183 11.696 7.182-11.696h8.817v30.21h-8.301v-17.35l-7.698 11.826h-.172l-7.656-11.782v17.306h-8.172V5.412zM211.609 5.412h12.946c7.569 0 12.472 3.928 12.472 10.574v.086c0 7.164-5.462 10.919-12.902 10.919h-4.172v8.63h-8.344V5.413zm12.343 15.019c2.925 0 4.774-1.597 4.774-3.97v-.087c0-2.59-1.849-3.927-4.816-3.927h-3.957v7.984h3.999zM254.399 5.196h8.043l12.816 30.426h-8.946l-2.15-5.438h-11.656l-2.15 5.438h-8.731l12.774-30.426zm7.311 18.472l-3.354-8.546-3.398 8.546h6.752zM284.629 5.412h7.784L304.8 21.38V5.412h8.258v30.21h-7.269L292.887 19.05v16.572h-8.258V5.412zM334.428 24.315L322.944 5.412h9.506l6.193 11.005 6.236-11.005h9.333l-11.44 18.773v11.437h-8.344V24.315z" fill="#fff"/><path d="M0 5.44h9.288l6.877 19.094 6.878-19.093h9.075L19.923 35.639h-7.728L0 5.44zM39.42 5.44h8.438v30.223h-8.437V5.441zM82.316.534h-6.665l-19.072 40h6.665l19.072-40z" fill="#FB5F61"/><path d="M156 22.454h-26L133.5 33l18-.5 4.5-10.046z" fill="#000C8A"/><path d="M151 10.5l-13.5-2-7.5 11.046h26l-5-9.046z" fill="#E1392D"/><path d="M126.04 5H126v.06h.04V5z" fill="#000C8A"/><path d="M126.04 5H126v.03h.04V5z" fill="#E1392D"/><path d="M130.5 14.5l4.5-7 8.04 8.167L156 16.5v9l-12.96.833L135 34l-2-1.5-2.5-18z" fill="#fff"/><path d="M131.5 11.5L133 9l9.6 8.764H157v6.472h-14.4L133.5 32l-2.5-1 .5-19.5z" fill="#007847"/><path d="M129 12l9.16 9-8.66 8-.5-17z" fill="#FFB915"/><path d="M129 15l6 6-6 5.5V15z" fill="#000"/><path d="M155.5 21c0-7.456-6.044-13.5-13.5-13.5s-13.5 6.044-13.5 13.5 6.044 13.5 13.5 13.5 13.5-6.044 13.5-13.5z" stroke="#fff" stroke-width="5"/></svg>
